X:04
T:Captain Kidd (as played by Pete Seeger)
C:Arranged by Steve Benbow
D:Pete Seeger "Golden Ring", FSI-16, 1964
Z:Digital Tradition <//sniff.numachi.com/~rickheit/dtrad/
Q:1/4=100
M:4/4
L:1/8
K:E
B,B,| EE (F/2E/2) D E2 GA| B2 AG (FA) GF|
EE (F/2E/2)D (E/2B,3/2) CC|B,6- B,A|
GF GA B3 B|AF DC B,2 CD|
EE EC A,2 G,A,| B,2 CD E2 |]
